X:258
T:Deeds Not Words
C:Rebecca King, 2018
L:1/4
M:2/2
R:Reel
S:Colin Hume's website,  colinhume.com  - chords can also be printed below the stave.
Q:1/2=106
H:Tune commissioned by the Friends of Cecil Sharp House, as was the dance by Hazel Moir.
K:C
P:A
|: "C"Gc cd | "C"ef/g/ "F"a2 | "C"ge/c/ "F"AB/c/ | "G"dc cB |\
"F"A>A "G"BG | "Am"c2 Ac |1 "Bb"d2 d"F"c | "Bb"d2 _BB/A/ :|2 "Bb"dc "G"cB | "C"c2 c/d/e/f/ ||
P:B1
"G"g2 f>e | "/"d3 d/e/ | "Dm"fd dd/e/ | "G"fd g/f/e/d/ |\
"Am"ca "F"gf | "C"gf ec/B/ | "F"AA "Dm"fe | "G"d2 "C"c/d/e/f/ |
P:B2
"G"g2 f>e | "/"d3 d/e/ | "Dm"fd dd/e/ | "G"fd g/f/e/d/ |\
"Am"cc' "F"ba | "C"gf ef/e/ | "Bb"dc "G"cB | "C"c2 c2 |]

